Numix/32/mimetypes/application-vnd.openxmlformats-officedocument.wordprocessingml.document.svg

<?xml version="1.0" encoding="UTF-8" standalone="no"?>
<svg
   xmlns:dc="http://purl.org/dc/elements/1.1/"
   xmlns:cc="http://creativecommons.org/ns#"
   xmlns:rdf="http://www.w3.org/1999/02/22-rdf-syntax-ns#"
   xmlns:svg="http://www.w3.org/2000/svg"
   xmlns="http://www.w3.org/2000/svg"
   xmlns:sodipodi="http://sodipodi.sourceforge.net/DTD/sodipodi-0.dtd"
   xmlns:inkscape="http://www.inkscape.org/namespaces/inkscape"
   width="32"
   height="32"
   viewBox="0 0 32 32"
   id="svg2"
   version="1.1"
   inkscape:version="0.91 r13725"
   sodipodi:docname="application-vnd.openxmlformats-officedocument.wordprocessingml.document.svg">
  <metadata
     id="metadata42">
    <rdf:RDF>
      <cc:Work
         rdf:about="">
        <dc:format>image/svg+xml</dc:format>
        <dc:type
           rdf:resource="http://purl.org/dc/dcmitype/StillImage" />
      </cc:Work>
    </rdf:RDF>
  </metadata>
  <defs
     id="defs40" />
  <sodipodi:namedview
     pagecolor="#ffffff"
     bordercolor="#666666"
     borderopacity="1"
     objecttolerance="10"
     gridtolerance="10"
     guidetolerance="10"
     inkscape:pageopacity="0"
     inkscape:pageshadow="2"
     inkscape:window-width="1366"
     inkscape:window-height="704"
     id="namedview38"
     showgrid="false"
     inkscape:zoom="1"
     inkscape:cx="22.05769"
     inkscape:cy="1.3837036"
     inkscape:window-x="0"
     inkscape:window-y="27"
     inkscape:window-maximized="1"
     inkscape:current-layer="svg2">
    <inkscape:grid
       type="xygrid"
       id="grid3046" />
  </sodipodi:namedview>
  <path
     style="fill:#3468ce;fill-opacity:1"
     d="M 5.335888,2.97e-4 C 4.648414,3.12e-4 4,0.676788 4,1.394031 L 4,30.606268 C 4,31.282757 4.687474,32 5.335888,32 l 21.327333,0 c 0.648413,0 1.335888,-0.717243 1.335888,-1.393732 L 28.000001,9 l -9,-9 z"
     id="path4-1"
     inkscape:connector-curvature="0"
     sodipodi:nodetypes="ssssssccs" />
  <path
     style="fill:#000000;fill-opacity:0.19599998"
     d="m 21,9 7,7 0,-7 z"
     id="path6-4"
     inkscape:connector-curvature="0"
     sodipodi:nodetypes="cccc" />
  <path
     style="fill:#ffffff;fill-opacity:0.39200003"
     d="M 19.000306,2.97e-4 27.9919,9 20.378638,9 C 19.705688,9 19.000306,8.2865104 19.000306,7.61356 z"
     id="path8-6"
     inkscape:connector-curvature="0"
     sodipodi:nodetypes="ccssc" />
  <rect
     style="fill:#f9f9f9;fill-opacity:1;fill-rule:evenodd;stroke:none"
     id="rect3029"
     width="6"
     height="5"
     x="10"
     y="11" />
  <rect
     style="fill:#f9f9f9;fill-opacity:1;fill-rule:evenodd;stroke:none"
     id="rect3031"
     width="5"
     height="1"
     x="17"
     y="11" />
  <path
     style="fill:#000000;fill-opacity:0.19599998"
     d="m 4,24 0,6.667969 C 4,31.316407 4.6874999,32 5.3320309,32 L 26.667969,32 C 27.3125,32 28,31.316407 28,30.667969 L 28,24 z"
     id="path26"
     inkscape:connector-curvature="0" />
  <rect
     style="fill:#f9f9f9;fill-opacity:1;fill-rule:evenodd;stroke:none"
     id="rect3033"
     width="5"
     height="1"
     x="17"
     y="12.999999" />
  <path
     style="fill:#ffffff"
     d="m 19.9915,26 1.419137,2.358689 C 20.863233,29.237273 20.362966,30.090004 19.9,31 l 1.128,0 c 0.304318,-0.669256 0.672136,-1.298676 0.989044,-1.915562 C 22.364337,29.731462 22.690343,30.364173 22.974,31 L 24.1,31 C 23.648396,30 23.169291,29.178673 22.623452,28.332519 L 24.010295,26 22.981,26 22.017044,27.596301 21.1,26 Z"
     id="path32"
     inkscape:connector-curvature="0"
     sodipodi:nodetypes="ccccccccccccc" />
  <rect
     style="fill:#f9f9f9;fill-opacity:1;fill-rule:evenodd;stroke:none"
     id="rect3035"
     width="5"
     height="1"
     x="17"
     y="14.999999" />
  <rect
     style="fill:#f9f9f9;fill-opacity:1;fill-rule:evenodd;stroke:none"
     id="rect3037"
     width="12"
     height="1"
     x="10"
     y="17" />
  <rect
     style="fill:#f9f9f9;fill-opacity:1;fill-rule:evenodd;stroke:none"
     id="rect3039"
     width="12"
     height="1"
     x="10"
     y="19" />
  <rect
     style="fill:#f9f9f9;fill-opacity:1;fill-rule:evenodd;stroke:none"
     id="rect3041"
     width="12"
     height="1"
     x="10"
     y="21" />
  <path
     sodipodi:nodetypes="ccccscsccccscscscsccccccc"
     inkscape:connector-curvature="0"
     id="path4172"
     d="m 18.224301,25.9 c -0.321408,0 -0.620313,0.0574 -0.892525,0.175505 -0.268933,0.114289 -0.50399,0.281843 -0.704049,0.506611 -0.193501,0.220957 -0.347994,0.490379 -0.459501,0.814195 C 16.056717,27.716317 16,28.086754 16,28.498189 c 0,0.834308 0.184246,1.473779 0.548287,1.923314 0.364042,0.453342 0.89227,0.678497 1.580997,0.678497 0.308289,0 0.577278,-0.03436 0.806853,-0.10675 0.239416,-0.07238 0.426118,-0.153023 0.563863,-0.240641 l -0.246106,-0.77982 c -0.101671,0.06095 -0.236163,0.118166 -0.403427,0.179123 -0.163982,0.05714 -0.373633,0.08685 -0.626166,0.08685 -0.436197,0 -0.753541,-0.151372 -0.947041,-0.452332 -0.19022,-0.304769 -0.286605,-0.74413 -0.286605,-1.311761 0,-0.327627 0.03393,-0.602287 0.102802,-0.823244 0.07543,-0.217148 0.167309,-0.391558 0.278816,-0.521085 0.114789,-0.133337 0.245268,-0.228913 0.386293,-0.282256 0.147586,-0.05714 0.299291,-0.08685 0.450156,-0.08685 0.223017,0 0.418408,0.02971 0.585669,0.08685 0.173822,0.05335 0.322579,0.122645 0.443927,0.202646 l 0.252335,-0.788865 c -0.03608,-0.02285 -0.09295,-0.05381 -0.165109,-0.0995 -0.06888,-0.0419 -0.156732,-0.07951 -0.261682,-0.117605 -0.104949,-0.03809 -0.229691,-0.07285 -0.370716,-0.0995 -0.137745,-0.03048 -0.295025,-0.04524 -0.468845,-0.04523 z"
     style="fill:#ffffff" />
  <path
     style="fill:#ffffff"
     d="m 13.756045,25.9 c -0.58292,0 -1.03528,0.216679 -1.362957,0.658594 C 12.065411,26.992888 11.9,27.641028 11.9,28.49819 c 0,0.860972 0.159377,1.50854 0.476707,1.950453 C 12.697485,30.88294 13.15881,31.1 13.765874,31.1 c 0.586369,0 1.042179,-0.21706 1.362957,-0.651357 0.324229,-0.441913 0.48326,-1.089481 0.48326,-1.950453 0,-0.857162 -0.159551,-1.505302 -0.473431,-1.939596 C 14.82133,26.116679 14.36311,25.9 13.756045,25.9 Z m 0,0.861242 c 0.17936,0 0.371291,0.04609 0.474768,0.13751 0.106927,0.09143 0.185622,0.212906 0.240811,0.369101 0.06208,0.156195 0.100704,0.338314 0.117948,0.555463 0.02069,0.209527 0.0344,0.434875 0.0344,0.674877 0,0.243816 -0.0137,0.46897 -0.0344,0.678497 -0.01725,0.20953 -0.05586,0.391651 -0.117948,0.555463 -0.05519,0.156194 -0.136989,0.27767 -0.247364,0.369103 -0.106925,0.09143 -0.295754,0.137509 -0.468215,0.137509 -0.175911,0 -0.369061,-0.04609 -0.475988,-0.137509 -0.103476,-0.09143 -0.186918,-0.212909 -0.249001,-0.369103 -0.05519,-0.156192 -0.09217,-0.338697 -0.11631,-0.548226 -0.01726,-0.213337 -0.02457,-0.441918 -0.02457,-0.685734 0,-0.240002 0.0073,-0.46535 0.02457,-0.674877 0.02414,-0.209531 0.06112,-0.392032 0.11631,-0.548226 0.06209,-0.160003 0.145525,-0.284906 0.249001,-0.376338 0.106927,-0.09144 0.300077,-0.13751 0.475988,-0.13751 z"
     id="path4174"
     inkscape:connector-curvature="0"
     sodipodi:nodetypes="scscscscscscccscccscccsccc" />
  <path
     sodipodi:nodetypes="ccccscccsccccccccsccccccc"
     inkscape:connector-curvature="0"
     id="path4176"
     d="M 9.1999062,25.901544 C 8.7845041,25.887277 8.3747827,25.975271 8,26.026802 l 0,4.953461 c 0.3617054,0.09577 0.7329728,0.09378 1.0720866,0.119737 0.3397756,0 0.6538619,-0.04691 0.9330834,-0.140001 0.28595,-0.09698 0.534544,-0.247399 0.739755,-0.456847 0.205211,-0.205568 0.363346,-0.473478 0.477725,-0.803163 C 11.340397,29.366423 11.4,28.962718 11.4,28.493399 11.4,28.035718 11.346279,27.643739 11.238629,27.32181 11.13434,26.99601 10.990835,26.724221 10.802444,26.518652 10.610689,26.305326 10.378489,26.149755 10.102632,26.04891 9.8335025,25.95194 9.5295901,25.901541 9.1999062,25.901544 Z m 0.091072,0.88053 c 0.2220321,0 0.4035376,0.04651 0.5448309,0.14737 0.1379283,0.09309 0.2499942,0.218607 0.3307332,0.377635 0.0841,0.159024 0.13732,0.339708 0.170958,0.545266 0.03364,0.209449 0.05113,0.423853 0.05113,0.641058 0,0.252114 -0.02337,0.484838 -0.0671,0.698163 -0.037,0.205571 -0.105355,0.388474 -0.202914,0.539743 -0.09083,0.155147 -0.2141606,0.273885 -0.3722743,0.359213 -0.1513851,0.08922 -0.340037,0.132633 -0.568797,0.132633 -0.05918,0.0058 -0.1252378,-0.0052 -0.1789475,-0.0073 l 0,-3.409766 c 0.1001571,-0.02074 0.1961409,-0.01608 0.2923874,-0.02396 z"
     style="fill:#ffffff" />
</svg>

<svg xmlns="http://www.w3.org/2000/svg" viewBox="0 0 32 32">
 <path d="m 5.336 0 c -0.687 0 -1.336 0.676 -1.336 1.394 l 0 29.21 c 0 0.676 0.687 1.394 1.336 1.394 l 21.327 0 c 0.648 0 1.336 -0.717 1.336 -1.394 l 0.001 -21.606 l -9 -9 z" style="fill:#3468ce;fill-opacity:1"/>
 <path d="m 21 9 7 7 0 -7 z" style="fill:#000;fill-opacity:0.196"/>
 <path d="m 19 0 8.992 9 -7.613 0 c -0.673 0 -1.378 -0.713 -1.378 -1.386 z" style="fill:#fff;fill-opacity:0.392"/>
 <rect width="6" height="5" x="10" y="11" style="fill:#f9f9f9;fill-opacity:1;stroke:none;fill-rule:evenodd"/>
 <rect width="5" height="1" x="17" y="11" style="fill:#f9f9f9;fill-opacity:1;stroke:none;fill-rule:evenodd"/>
 <path d="m 4 24 0 6.668 c 0 0.648 0.687 1.332 1.332 1.332 l 21.336 0 c 0.645 0 1.332 -0.684 1.332 -1.332 l 0 -6.668 z" style="fill:#000;fill-opacity:0.196"/>
 <rect width="5" height="1" x="17" y="13" style="fill:#f9f9f9;fill-opacity:1;stroke:none;fill-rule:evenodd"/>
 <path d="m 19.992 26 1.419 2.359 c -0.547 0.879 -1.048 1.731 -1.511 2.641 l 1.128 0 c 0.304 -0.669 0.672 -1.299 0.989 -1.916 c 0.347 0.647 0.673 1.28 0.957 1.916 l 1.126 0 c -0.452 -1 -0.931 -1.821 -1.477 -2.667 l 1.387 -2.333 -1.029 0 -0.964 1.596 -0.917 -1.596" style="fill:#fff"/>
 <rect width="5" height="1" x="17" y="15" style="fill:#f9f9f9;fill-opacity:1;stroke:none;fill-rule:evenodd"/>
 <rect width="12" height="1" x="10" y="17" style="fill:#f9f9f9;fill-opacity:1;stroke:none;fill-rule:evenodd"/>
 <rect width="12" height="1" x="10" y="19" style="fill:#f9f9f9;fill-opacity:1;stroke:none;fill-rule:evenodd"/>
 <rect width="12" height="1" x="10" y="21" style="fill:#f9f9f9;fill-opacity:1;stroke:none;fill-rule:evenodd"/>
 <path d="m 18.224 25.9 c -0.321 0 -0.62 0.057 -0.893 0.176 -0.269 0.114 -0.504 0.282 -0.704 0.507 -0.194 0.221 -0.348 0.49 -0.46 0.814 c -0.112 0.32 -0.168 0.69 -0.168 1.102 c 0 0.834 0.184 1.474 0.548 1.923 0.364 0.453 0.892 0.678 1.581 0.678 0.308 0 0.577 -0.034 0.807 -0.107 0.239 -0.072 0.426 -0.153 0.564 -0.241 l -0.246 -0.78 c -0.102 0.061 -0.236 0.118 -0.403 0.179 -0.164 0.057 -0.374 0.087 -0.626 0.087 -0.436 0 -0.754 -0.151 -0.947 -0.452 -0.19 -0.305 -0.287 -0.744 -0.287 -1.312 0 -0.328 0.034 -0.602 0.103 -0.823 0.075 -0.217 0.167 -0.392 0.279 -0.521 0.115 -0.133 0.245 -0.229 0.386 -0.282 0.148 -0.057 0.299 -0.087 0.45 -0.087 0.223 0 0.418 0.03 0.586 0.087 0.174 0.053 0.323 0.123 0.444 0.203 l 0.252 -0.789 c -0.036 -0.023 -0.093 -0.054 -0.165 -0.099 -0.069 -0.042 -0.157 -0.08 -0.262 -0.118 -0.105 -0.038 -0.23 -0.073 -0.371 -0.099 -0.138 -0.03 -0.295 -0.045 -0.469 -0.045 z" style="fill:#fff"/>
 <path d="m 13.756 25.9 c -0.583 0 -1.035 0.217 -1.363 0.659 c -0.328 0.434 -0.493 1.082 -0.493 1.94 c 0 0.861 0.159 1.509 0.477 1.95 c 0.321 0.434 0.782 0.651 1.389 0.651 c 0.586 0 1.042 -0.217 1.363 -0.651 0.324 -0.442 0.483 -1.089 0.483 -1.95 0 -0.857 -0.16 -1.505 -0.473 -1.94 c -0.317 -0.442 -0.776 -0.659 -1.383 -0.659 m 0 0.861 c 0.179 0 0.371 0.046 0.475 0.138 0.107 0.091 0.186 0.213 0.241 0.369 0.062 0.156 0.101 0.338 0.118 0.555 0.021 0.21 0.034 0.435 0.034 0.675 0 0.244 -0.014 0.469 -0.034 0.678 -0.017 0.21 -0.056 0.392 -0.118 0.555 -0.055 0.156 -0.137 0.278 -0.247 0.369 -0.107 0.091 -0.296 0.138 -0.468 0.138 -0.176 0 -0.369 -0.046 -0.476 -0.138 -0.103 -0.091 -0.187 -0.213 -0.249 -0.369 -0.055 -0.156 -0.092 -0.339 -0.116 -0.548 -0.017 -0.213 -0.025 -0.442 -0.025 -0.686 0 -0.24 0.007 -0.465 0.025 -0.675 0.024 -0.21 0.061 -0.392 0.116 -0.548 0.062 -0.16 0.146 -0.285 0.249 -0.376 0.107 -0.091 0.3 -0.138 0.476 -0.138 z" style="fill:#fff"/>
 <path d="m 9.2 25.902 c -0.415 -0.014 -0.825 0.074 -1.2 0.125 l 0 4.953 c 0.362 0.096 0.733 0.094 1.072 0.12 0.34 0 0.654 -0.047 0.933 -0.14 0.286 -0.097 0.535 -0.247 0.74 -0.457 0.205 -0.206 0.363 -0.473 0.478 -0.803 c 0.118 -0.334 0.177 -0.737 0.177 -1.207 0 -0.458 -0.054 -0.85 -0.161 -1.172 -0.104 -0.326 -0.248 -0.598 -0.436 -0.803 -0.192 -0.213 -0.424 -0.369 -0.7 -0.47 -0.269 -0.097 -0.573 -0.147 -0.903 -0.147 m 0.091 0.881 c 0.222 0 0.404 0.047 0.545 0.147 0.138 0.093 0.25 0.219 0.331 0.378 0.084 0.159 0.137 0.34 0.171 0.545 0.034 0.209 0.051 0.424 0.051 0.641 0 0.252 -0.023 0.485 -0.067 0.698 -0.037 0.206 -0.105 0.388 -0.203 0.54 -0.091 0.155 -0.214 0.274 -0.372 0.359 -0.151 0.089 -0.34 0.133 -0.569 0.133 -0.059 0.006 -0.125 -0.005 -0.179 -0.007 l 0 -3.41 c 0.1 -0.021 0.196 -0.016 0.292 -0.024 z" style="fill:#fff"/>
</svg>
